X:55
T:Where Am I To Go, M' Johnnies
M:2/4
L:1/16
Q:1/4=120
K:C
G3A G3E|D3B, A,A,2G,|A,3A, B,3G,|E4 G,2G,2|
C4 D4|E4 c4|d4 G4|c6 G2|
c3d c3A|G2ED D3C|D3D E3C|A,6 G,2|
C3D(E3F)|G3A G3F|E3E D3D |C8||
